X: 1
T: Buv\vcansko
O: Macedonia
N: Start slow, around 92-100, and slowly speed up to 112 or faster.
Z: 1998 by John Chambers <jc@trillian.mit.edu> http://trillian.mit.edu/~jc/music/
M: 4/4
L: 1/8
K: DDorian
P: drum:
|: "/"CD "/"D>E "/"FG FE | "/"FG "/"AG "/"GF FE | "/"FG "/"AG "/"GF FE | "/"F/E/D EC "/"D2 D2 :|
|: "/"GA "/"{G}AA "/"~A2 A2 | "/"B/c/d "/"c/B/A "/"GF F2 | "/"B/c/d "/"c/B/A "/"GF F>E | "/"F/E/D EC "/"D2 D2 :|
%%sep 5 5 200
K: EDorian
|: DE E>F GA GF | GA BA AG GF | GA BA AG GF | G/F/E FD E2 E2 :|
|: AB {A}BB ~B2 B2 | c/d/e d/c/B AG G2 | c/d/e d/c/B AG G>F | G/F/E FD E2 E2 :|
%%sep 5 5 200
K: F#Dorian
|: EF F>G AB AG | AB cB BA AG | AB cB BA AG | A/G/F GE F2 F2 :|
|: Bc {B}cc ~c2 c2 | d/e/f e/d/c BA A2 | d/e/f e/d/c BA A>G | A/G/F GE F2 F2 :|
